X: 1200
T: The Pleasures of Home
M:2/4
L:1/16
R:Reel
B:O'Neill's 1200
N:Collected by F. O'Neill
Z:Transcribed by Trish O'Nei
K:Gm
(dc)|BG2G G^FGA|BABc d2(cB)|AF2F F=EFG|A^GAB c2(dc)|
BG2F DEFD|GABc d2(cB)|AFAc BGAF|D2G2 G2||
(GA)|BABc dedc|BABc d2(d=e)|fgfd cdcB|AFAB c2(dc)|
BABG AG^FA|GABc d2(d=e)|fdcA FAcA|B2G2 G2||


